img/icons/favorites_icon.svg

<svg width="18" height="16" viewBox="0 0 18 16" fill="none" xmlns="http://www.w3.org/2000/svg">
<path fill-rule="evenodd" clip-rule="evenodd" d="M11.8375 1.7083C12.6954 1.43168 13.6524 1.45235 14.4852 1.8424L14.4863 1.84295C14.4908 1.84503 14.4952 1.84713 14.4997 1.84923L14.5019 1.85028V1.85139H14.5034C15.1401 2.1539 15.6539 2.60995 16.0006 3.17977C16.1617 3.44454 16.2867 3.73389 16.3711 4.04381L16.3715 4.04502C16.3725 4.04884 16.3736 4.05266 16.3746 4.05649C16.6386 5.03941 16.5163 6.31339 15.7026 7.77329L15.7003 7.77787C15.6982 7.78185 15.696 7.78582 15.6938 7.7898C15.6924 7.79235 15.691 7.79491 15.6895 7.79746C14.6126 9.74632 12.7597 11.2787 9.38479 13.9614C9.35382 13.986 9.32273 14.0107 9.29151 14.0355C9.2077 14.1021 9.12297 14.1694 9.0373 14.2374L9.03458 14.2396C9.02131 14.2501 9.00802 14.2607 8.9947 14.2712C8.98089 14.2603 8.96673 14.249 8.95297 14.2381L8.95009 14.2358C8.86503 14.1683 8.78089 14.1015 8.69767 14.0354C8.66638 14.0105 8.63523 13.9858 8.6042 13.9611C5.2281 11.278 3.37522 9.74558 2.29838 7.79616L2.29683 7.79335C2.29398 7.78819 2.29114 7.78303 2.28831 7.77787L2.28756 7.77634C1.48132 6.31644 1.36207 5.04169 1.62607 4.05649C1.62713 4.05256 1.62819 4.04863 1.62926 4.04471C1.89627 3.06618 2.56223 2.29373 3.48604 1.85139C3.4911 1.84901 3.49616 1.84663 3.50123 1.84427L3.50483 1.8426C3.51577 1.83752 3.52672 1.83251 3.53769 1.82756L3.54076 1.82617C5.01094 1.16458 6.82516 1.62202 7.83184 2.81465C8.02409 3.04241 8.18689 3.29698 8.31221 3.57569C8.37196 3.70851 8.46802 3.82108 8.58895 3.90001C8.70988 3.97894 8.85059 4.0209 8.99432 4.0209C9.13806 4.0209 9.27877 3.97894 9.3997 3.90001C9.52063 3.82108 9.61669 3.70851 9.67644 3.57569C9.80178 3.29709 9.96493 3.04264 10.1577 2.815C10.5964 2.29683 11.1886 1.91752 11.8375 1.7083ZM10.4024 0.683362C11.6357 -0.00955427 13.1431 -0.19883 14.5019 0.22306L14.5034 0.223526C14.7192 0.290615 14.9312 0.373129 15.1379 0.471496C15.1435 0.474167 15.1491 0.476848 15.1547 0.479538C15.9288 0.850652 16.5906 1.39661 17.0805 2.08163C17.4125 2.54583 17.6658 3.07395 17.8221 3.65494C17.8231 3.65891 17.8242 3.66289 17.8252 3.66686C18.2016 5.08502 17.9812 6.73597 17.0549 8.43902L17.0525 8.4435C17.0417 8.46319 17.0309 8.48289 17.02 8.50259L17.0179 8.50643C17.015 8.51172 17.012 8.51701 17.0091 8.52229C15.7203 10.8684 13.4794 12.6472 9.93632 15.4572C9.93294 15.4599 9.92956 15.4625 9.92619 15.4652L9.45594 15.8386C9.3241 15.9432 9.16161 16 8.99432 16C8.82704 16 8.66455 15.9432 8.53271 15.8386L8.06246 15.4652C8.05928 15.4627 8.05609 15.4602 8.05291 15.4576C4.50874 12.6466 2.26765 10.8678 0.978829 8.52077C0.97577 8.51523 0.972719 8.50969 0.969675 8.50415L0.968777 8.50251C0.957857 8.48263 0.947034 8.46275 0.936305 8.44287L0.935498 8.44138C0.0156171 6.73666 -0.200446 5.08541 0.175883 3.66789L0.176232 3.66658C0.177264 3.6627 0.1783 3.65882 0.179342 3.65494C0.565174 2.21967 1.5399 1.10505 2.8301 0.48149C2.83271 0.480228 2.83532 0.478969 2.83793 0.477711C2.84172 0.475889 2.84551 0.474072 2.8493 0.472258L2.8523 0.470734C4.36868 -0.245682 6.16316 -0.119743 7.5896 0.682447C7.97836 0.901069 8.33977 1.16992 8.66077 1.48564C8.77793 1.60086 8.8897 1.72233 8.99545 1.84987C9.10112 1.72262 9.21282 1.60141 9.32991 1.48642C9.65125 1.17083 10.0132 0.902021 10.4024 0.683362Z" fill="#004EA6"/>
<path d="M11.8375 1.7083C12.6954 1.43168 13.6524 1.45235 14.4852 1.8424L14.4863 1.84295L14.4997 1.84923L14.5019 1.85028V1.85139H14.5034C15.1401 2.1539 15.6539 2.60995 16.0006 3.17977C16.1617 3.44454 16.2867 3.73389 16.3711 4.04381L16.3715 4.04502L16.3746 4.05649C16.6386 5.03941 16.5163 6.31339 15.7026 7.77329L15.7003 7.77787L15.6938 7.7898L15.6895 7.79746C14.6126 9.74632 12.7597 11.2787 9.38479 13.9614L9.29151 14.0355L9.0373 14.2374L9.03458 14.2396L8.9947 14.2712L8.95297 14.2381L8.95009 14.2358L8.69767 14.0354L8.6042 13.9611C5.2281 11.278 3.37522 9.74558 2.29838 7.79616L2.29683 7.79335L2.28831 7.77787L2.28756 7.77634C1.48132 6.31644 1.36207 5.04169 1.62607 4.05649L1.62926 4.04471C1.89627 3.06618 2.56223 2.29373 3.48604 1.85139L3.50123 1.84427L3.50483 1.8426L3.53769 1.82756L3.54076 1.82617C5.01094 1.16458 6.82516 1.62202 7.83184 2.81465C8.02409 3.04241 8.18689 3.29698 8.31221 3.57569C8.37196 3.70851 8.46802 3.82108 8.58895 3.90001C8.70988 3.97894 8.85059 4.0209 8.99432 4.0209C9.13806 4.0209 9.27877 3.97894 9.3997 3.90001C9.52063 3.82108 9.61669 3.70851 9.67644 3.57569C9.80178 3.29709 9.96493 3.04264 10.1577 2.815C10.5964 2.29683 11.1886 1.91752 11.8375 1.7083Z" fill="#004EA6"/>
</svg>

<svg width="18" height="16" fill="none" xmlns="http://www.w3.org/2000/svg"><path fill-rule="evenodd" clip-rule="evenodd" d="M11.838 1.708c.857-.276 1.814-.256 2.647.134l.001.001.014.006.002.001v.001h.001c.637.303 1.15.759 1.498 1.329.16.265.286.554.37.864v.001l.004.011c.264.983.141 2.257-.672 3.717l-.003.005-.006.012-.005.007c-1.076 1.95-2.93 3.482-6.304 6.164l-.093.075-.255.201-.002.003-.04.031-.042-.033-.003-.002-.252-.2-.094-.075c-3.376-2.683-5.229-4.215-6.306-6.165l-.001-.003a5.94 5.94 0 01-.009-.015v-.002c-.807-1.46-.926-2.734-.662-3.72l.003-.011c.267-.979.933-1.751 1.857-2.194l.015-.007.004-.001.033-.015.003-.002c1.47-.661 3.284-.204 4.29.989.193.227.356.482.481.76.06.134.156.246.277.325a.741.741 0 001.087-.324 3.24 3.24 0 01.482-.761 3.68 3.68 0 011.68-1.107zM10.402.683c1.234-.693 2.741-.882 4.1-.46h.001a4.774 4.774 0 01.652.257 5.023 5.023 0 011.926 1.602c.332.464.585.992.741 1.573l.003.012c.377 1.418.156 3.069-.77 4.772l-.003.005-.032.059-.002.003-.009.016c-1.289 2.346-3.53 4.125-7.073 6.935l-.01.008-.47.374a.743.743 0 01-.923 0l-.47-.374-.01-.007C4.509 12.647 2.268 10.868.979 8.52a9.134 9.134 0 01-.01-.017v-.001l-.033-.06V8.44C.015 6.737-.2 5.085.175 3.668v-.001l.003-.012C.565 2.22 1.54 1.105 2.83.48a6.994 6.994 0 01.02-.009L2.852.47C4.37-.246 6.163-.12 7.59.682A5.071 5.071 0 018.995 1.85 5.082 5.082 0 0110.402.683z" fill="#004EA6"/><path d="M11.838 1.708c.857-.276 1.814-.256 2.647.134l.001.001.014.006.002.001v.001h.001c.637.303 1.15.759 1.498 1.329.16.265.286.554.37.864v.001l.004.011c.264.983.141 2.257-.672 3.717l-.003.005-.006.012-.005.007c-1.076 1.95-2.93 3.482-6.304 6.164l-.093.075-.255.201-.002.003-.04.031-.042-.033-.003-.002-.252-.2-.094-.075c-3.376-2.683-5.229-4.215-6.306-6.165l-.001-.003-.009-.015v-.002c-.807-1.46-.926-2.734-.662-3.72l.003-.011c.267-.979.933-1.751 1.857-2.194l.015-.007.004-.001.033-.015.003-.002c1.47-.661 3.284-.204 4.29.989.193.227.356.482.481.76.06.134.156.246.277.325a.741.741 0 001.087-.324 3.24 3.24 0 01.482-.761 3.68 3.68 0 011.68-1.107z" fill="#004EA6"/></svg>
